gnome/icons/Varda/apps/scalable/disk-utility.svg

<?xml version="1.0" encoding="UTF-8" standalone="no"?>
<svg
   xmlns:dc="http://purl.org/dc/elements/1.1/"
   xmlns:cc="http://creativecommons.org/ns#"
   xmlns:rdf="http://www.w3.org/1999/02/22-rdf-syntax-ns#"
   xmlns:svg="http://www.w3.org/2000/svg"
   xmlns="http://www.w3.org/2000/svg"
   xmlns:sodipodi="http://sodipodi.sourceforge.net/DTD/sodipodi-0.dtd"
   xmlns:inkscape="http://www.inkscape.org/namespaces/inkscape"
   width="64px"
   height="64px"
   viewBox="0 0 64 64"
   version="1.1"
   id="svg23"
   sodipodi:docname="disk-utility.svg"
   inkscape:version="1.0.2 (e86c870879, 2021-01-15)">
  <metadata
     id="metadata29">
    <rdf:RDF>
      <cc:Work
         rdf:about="">
        <dc:format>image/svg+xml</dc:format>
        <dc:type
           rdf:resource="http://purl.org/dc/dcmitype/StillImage" />
      </cc:Work>
    </rdf:RDF>
  </metadata>
  <defs
     id="defs27" />
  <sodipodi:namedview
     pagecolor="#ffffff"
     bordercolor="#666666"
     borderopacity="1"
     objecttolerance="10"
     gridtolerance="10"
     guidetolerance="10"
     inkscape:pageopacity="0"
     inkscape:pageshadow="2"
     inkscape:window-width="2560"
     inkscape:window-height="1403"
     id="namedview25"
     showgrid="false"
     inkscape:zoom="15.75"
     inkscape:cx="32"
     inkscape:cy="32"
     inkscape:window-x="0"
     inkscape:window-y="0"
     inkscape:window-maximized="1"
     inkscape:current-layer="surface1" />
  <g
     id="surface1">
    <path
       style="fill:#d0ebee;fill-opacity:1;fill-rule:nonzero;stroke:none"
       d="m 10.582031,3.144531 h 42.335938 c 1.460937,0 2.644531,1.1875 2.644531,2.648438 v 52.914062 c 0,1.460938 -1.183594,2.648438 -2.644531,2.648438 H 10.582031 c -1.460937,0 -2.644531,-1.1875 -2.644531,-2.648438 V 5.792969 c 0,-1.460938 1.183594,-2.648438 2.644531,-2.648438 z m 0,0"
       id="path2" />
    <path
       style="fill:#0c0e11;fill-opacity:1;fill-rule:nonzero;stroke:none"
       d="m 31.75,8.4375 c 10.230469,0 18.519531,8.292969 18.519531,18.519531 0,10.230469 -8.289062,18.523438 -18.519531,18.523438 -10.230469,0 -18.519531,-8.292969 -18.519531,-18.523438 C 13.230469,16.730469 21.519531,8.4375 31.75,8.4375 Z m 0,0"
       id="path4" />
    <path
       style="fill:#2e3436;fill-opacity:1;fill-rule:nonzero;stroke:none"
       d="m 31.75,9.761719 c 9.5,0 17.199219,7.699219 17.199219,17.195312 0,9.5 -7.699219,17.199219 -17.199219,17.199219 -9.5,0 -17.199219,-7.699219 -17.199219,-17.199219 C 14.550781,17.460938 22.25,9.761719 31.75,9.761719 Z m 0,0"
       id="path6" />
    <path
       style="fill:#733447;fill-opacity:1;fill-rule:nonzero;stroke:none"
       d="m 14.550781,26.957031 c 0,9.527344 7.671875,17.199219 17.199219,17.199219 9.527344,0 17.199219,-7.671875 17.199219,-17.199219 -11.90625,-5.289062 -22.492188,7.9375 -34.398438,0 z m 0,0"
       id="path8" />
    <path
       style="fill:#0c0e11;fill-opacity:1;fill-rule:nonzero;stroke:none"
       d="m 27.421875,33.953125 c -0.195313,-0.199219 -0.496094,-0.253906 -0.75,-0.136719 l -8.195313,3.722656 c -1.335937,0.01563 -2.667968,0.53125 -3.691406,1.554688 -2.070312,2.074219 -2.070312,5.410156 0,7.484375 2.074219,2.074219 5.410156,2.074219 7.484375,0 1.023438,-1.023437 1.542969,-2.355469 1.554688,-3.691406 l 3.726562,-8.195313 c 0.113281,-0.25 0.05859,-0.542968 -0.128906,-0.738281 z m 0,0"
       id="path10" />
    <path
       style="fill:#0c0e11;fill-opacity:1;fill-rule:nonzero;stroke:none"
       d="m 15.875,53.417969 c 1.460938,0 2.644531,1.183593 2.644531,2.644531 0,1.460938 -1.183593,2.644531 -2.644531,2.644531 -1.460938,0 -2.644531,-1.183593 -2.644531,-2.644531 0,-1.460938 1.183593,-2.644531 2.644531,-2.644531 z m 0,0"
       id="path12" />
    <path
       style="fill:#0c0e11;fill-opacity:1;fill-rule:nonzero;stroke:none"
       d="m 47.625,53.417969 c 1.460938,0 2.644531,1.183593 2.644531,2.644531 0,1.460938 -1.183593,2.644531 -2.644531,2.644531 -1.460938,0 -2.644531,-1.183593 -2.644531,-2.644531 0,-1.460938 1.183593,-2.644531 2.644531,-2.644531 z m 0,0"
       id="path14" />
    <path
       style="fill:#0c0e11;fill-opacity:1;fill-rule:nonzero;stroke:none"
       d="m 23.8125,50.769531 h 15.875 c 0.730469,0 1.324219,0.59375 1.324219,1.324219 0,0.730469 -0.59375,1.324219 -1.324219,1.324219 h -15.875 c -0.730469,0 -1.324219,-0.59375 -1.324219,-1.324219 0,-0.730469 0.59375,-1.324219 1.324219,-1.324219 z m 0,0"
       id="path16" />
    <path
       style="fill:#d0ebee;fill-opacity:1;fill-rule:nonzero;stroke:none"
       d="m 15.875,54.738281 c 0.730469,0 1.324219,0.59375 1.324219,1.324219 0,0.730469 -0.59375,1.324219 -1.324219,1.324219 -0.730469,0 -1.324219,-0.59375 -1.324219,-1.324219 0,-0.730469 0.59375,-1.324219 1.324219,-1.324219 z m 0,0"
       id="path18" />
    <path
       style="fill:#d0ebee;fill-opacity:1;fill-rule:nonzero;stroke:none"
       d="m 47.625,54.738281 c 0.730469,0 1.324219,0.59375 1.324219,1.324219 0,0.730469 -0.59375,1.324219 -1.324219,1.324219 -0.730469,0 -1.324219,-0.59375 -1.324219,-1.324219 0,-0.730469 0.59375,-1.324219 1.324219,-1.324219 z m 0,0"
       id="path20" />
  </g>
</svg>

<?xml version="1.0" encoding="UTF-8"?>
<svg xmlns="http://www.w3.org/2000/svg" xmlns:xlink="http://www.w3.org/1999/xlink" width="64px" height="64px" viewBox="0 0 64 64" version="1.1">
<g id="surface1">
<path style=" stroke:none;fill-rule:nonzero;fill:rgb(74.117649%,74.117649%,74.117649%);fill-opacity:1;" d="M 10.582031 3.144531 L 52.917969 3.144531 C 54.378906 3.144531 55.5625 4.332031 55.5625 5.792969 L 55.5625 58.707031 C 55.5625 60.167969 54.378906 61.355469 52.917969 61.355469 L 10.582031 61.355469 C 9.121094 61.355469 7.9375 60.167969 7.9375 58.707031 L 7.9375 5.792969 C 7.9375 4.332031 9.121094 3.144531 10.582031 3.144531 Z M 10.582031 3.144531 "/>
<path style=" stroke:none;fill-rule:nonzero;fill:rgb(93.333334%,93.333334%,93.333334%);fill-opacity:1;" d="M 31.75 8.4375 C 41.980469 8.4375 50.269531 16.730469 50.269531 26.957031 C 50.269531 37.1875 41.980469 45.480469 31.75 45.480469 C 21.519531 45.480469 13.230469 37.1875 13.230469 26.957031 C 13.230469 16.730469 21.519531 8.4375 31.75 8.4375 Z M 31.75 8.4375 "/>
<path style=" stroke:none;fill-rule:nonzero;fill:rgb(87.843138%,87.843138%,87.843138%);fill-opacity:1;" d="M 31.75 9.761719 C 41.25 9.761719 48.949219 17.460938 48.949219 26.957031 C 48.949219 36.457031 41.25 44.15625 31.75 44.15625 C 22.25 44.15625 14.550781 36.457031 14.550781 26.957031 C 14.550781 17.460938 22.25 9.761719 31.75 9.761719 Z M 31.75 9.761719 "/>
<path style=" stroke:none;fill-rule:nonzero;fill:rgb(67.058825%,27.843139%,73.725492%);fill-opacity:1;" d="M 14.550781 26.957031 C 14.550781 36.484375 22.222656 44.15625 31.75 44.15625 C 41.277344 44.15625 48.949219 36.484375 48.949219 26.957031 C 37.042969 21.667969 26.457031 34.894531 14.550781 26.957031 Z M 14.550781 26.957031 "/>
<path style=" stroke:none;fill-rule:nonzero;fill:rgb(93.333334%,93.333334%,93.333334%);fill-opacity:1;" d="M 27.421875 33.953125 C 27.226562 33.753906 26.925781 33.699219 26.671875 33.816406 L 18.476562 37.539062 C 17.140625 37.554688 15.808594 38.070312 14.785156 39.09375 C 12.714844 41.167969 12.714844 44.503906 14.785156 46.578125 C 16.859375 48.652344 20.195312 48.652344 22.269531 46.578125 C 23.292969 45.554688 23.8125 44.222656 23.824219 42.886719 L 27.550781 34.691406 C 27.664062 34.441406 27.609375 34.148438 27.421875 33.953125 Z M 27.421875 33.953125 "/>
<path style=" stroke:none;fill-rule:nonzero;fill:rgb(45.882353%,45.882353%,45.882353%);fill-opacity:1;" d="M 15.875 53.417969 C 17.335938 53.417969 18.519531 54.601562 18.519531 56.0625 C 18.519531 57.523438 17.335938 58.707031 15.875 58.707031 C 14.414062 58.707031 13.230469 57.523438 13.230469 56.0625 C 13.230469 54.601562 14.414062 53.417969 15.875 53.417969 Z M 15.875 53.417969 "/>
<path style=" stroke:none;fill-rule:nonzero;fill:rgb(45.882353%,45.882353%,45.882353%);fill-opacity:1;" d="M 47.625 53.417969 C 49.085938 53.417969 50.269531 54.601562 50.269531 56.0625 C 50.269531 57.523438 49.085938 58.707031 47.625 58.707031 C 46.164062 58.707031 44.980469 57.523438 44.980469 56.0625 C 44.980469 54.601562 46.164062 53.417969 47.625 53.417969 Z M 47.625 53.417969 "/>
<path style=" stroke:none;fill-rule:nonzero;fill:rgb(45.882353%,45.882353%,45.882353%);fill-opacity:1;" d="M 23.8125 50.769531 L 39.6875 50.769531 C 40.417969 50.769531 41.011719 51.363281 41.011719 52.09375 C 41.011719 52.824219 40.417969 53.417969 39.6875 53.417969 L 23.8125 53.417969 C 23.082031 53.417969 22.488281 52.824219 22.488281 52.09375 C 22.488281 51.363281 23.082031 50.769531 23.8125 50.769531 Z M 23.8125 50.769531 "/>
<path style=" stroke:none;fill-rule:nonzero;fill:rgb(74.117649%,74.117649%,74.117649%);fill-opacity:1;" d="M 15.875 54.738281 C 16.605469 54.738281 17.199219 55.332031 17.199219 56.0625 C 17.199219 56.792969 16.605469 57.386719 15.875 57.386719 C 15.144531 57.386719 14.550781 56.792969 14.550781 56.0625 C 14.550781 55.332031 15.144531 54.738281 15.875 54.738281 Z M 15.875 54.738281 "/>
<path style=" stroke:none;fill-rule:nonzero;fill:rgb(74.117649%,74.117649%,74.117649%);fill-opacity:1;" d="M 47.625 54.738281 C 48.355469 54.738281 48.949219 55.332031 48.949219 56.0625 C 48.949219 56.792969 48.355469 57.386719 47.625 57.386719 C 46.894531 57.386719 46.300781 56.792969 46.300781 56.0625 C 46.300781 55.332031 46.894531 54.738281 47.625 54.738281 Z M 47.625 54.738281 "/>
</g>
</svg>
